images/play_btn.svg

<svg width="103" height="76" viewBox="0 0 103 76" fill="none" xmlns="http://www.w3.org/2000/svg">
<path opacity="0.48" d="M99.9929 13.175C99.0488 7.9648 94.5515 4.17029 89.3353 2.98589C81.5211 1.32893 67.0659 0.144531 51.4264 0.144531C35.7868 0.144531 21.1095 1.32893 13.2892 2.98589C8.07907 4.16627 3.57271 7.7235 2.62861 13.175C1.33079 21.4022 0.696325 29.7205 0.731355 38.0494C0.634456 46.3909 1.3473 54.7221 2.85986 62.9259C3.81301 68.1361 8.31032 71.9306 13.5175 73.115C21.8123 74.7709 36.0221 75.9543 51.6667 75.9543C67.3112 75.9543 81.5211 74.7699 89.8129 73.113C95.023 71.9285 99.5203 68.3743 100.47 62.9239C101.831 54.6966 102.624 46.3855 102.843 38.0494C102.521 29.6979 101.569 21.3828 99.9929 13.175V13.175ZM38.6362 54.6341V21.4668L67.5385 38.0494L38.6362 54.6341Z" fill="black"/>
<path d="M38.6484 21.5078V54.6872C38.6484 54.6872 67.6754 37.9112 67.605 37.9856C67.5346 38.06 38.6484 21.5078 38.6484 21.5078Z" fill="white"/>
</svg>

<svg width="103" height="76" fill="none" xmlns="http://www.w3.org/2000/svg"><path opacity=".48" d="M99.993 13.175c-.944-5.21-5.441-9.005-10.658-10.19C81.521 1.33 67.065.146 51.426.146c-15.64 0-30.317 1.184-38.137 2.84-5.21 1.181-9.716 4.739-10.66 10.19A155.44 155.44 0 00.73 38.049a128.939 128.939 0 002.13 24.877c.953 5.21 5.45 9.005 10.658 10.189 8.294 1.656 22.504 2.84 38.149 2.84 15.644 0 29.854-1.185 38.146-2.842 5.21-1.184 9.707-4.739 10.657-10.19a181.639 181.639 0 002.373-24.874 165.77 165.77 0 00-2.85-24.874zm-61.357 41.46V21.466l28.902 16.582-28.902 16.585z" fill="#000"/><path d="M38.648 21.508v33.18S67.675 37.91 67.605 37.985c-.07.074-28.957-16.478-28.957-16.478z" fill="#fff"/></svg>
